dist/images/icons/linkedin-copy.svg

<svg width="23" height="24" viewBox="0 0 23 24" fill="none" xmlns="http://www.w3.org/2000/svg">
<path d="M21.125 0.875H1.57422C0.710938 0.875 0 1.63672 0 2.55078V22C0 22.9141 0.710938 23.625 1.57422 23.625H21.125C21.9883 23.625 22.75 22.9141 22.75 22V2.55078C22.75 1.63672 21.9883 0.875 21.125 0.875ZM6.85547 20.375H3.50391V9.55859H6.85547V20.375ZM5.17969 8.03516C4.0625 8.03516 3.19922 7.17188 3.19922 6.10547C3.19922 5.03906 4.0625 4.125 5.17969 4.125C6.24609 4.125 7.10938 5.03906 7.10938 6.10547C7.10938 7.17188 6.24609 8.03516 5.17969 8.03516ZM19.5 20.375H16.0977V15.0938C16.0977 13.875 16.0977 12.25 14.3711 12.25C12.5938 12.25 12.3398 13.6211 12.3398 15.043V20.375H8.98828V9.55859H12.1875V11.0312H12.2383C12.6953 10.168 13.8125 9.25391 15.4375 9.25391C18.8398 9.25391 19.5 11.5391 19.5 14.4336V20.375Z" fill="rgb(255, 198, 117)"/>
</svg>

<svg width="23" height="24" fill="none" xmlns="http://www.w3.org/2000/svg"><path d="M21.125.875H1.575C.71.875 0 1.637 0 2.551V22c0 .914.71 1.625 1.574 1.625h19.551c.863 0 1.625-.71 1.625-1.625V2.55c0-.913-.762-1.675-1.625-1.675zm-14.27 19.5H3.504V9.559h3.351v10.816zM5.18 8.035c-1.117 0-1.98-.863-1.98-1.93 0-1.066.862-1.98 1.98-1.98 1.066 0 1.93.914 1.93 1.98a1.93 1.93 0 01-1.93 1.93zm14.32 12.34h-3.402v-5.281c0-1.219 0-2.844-1.727-2.844-1.777 0-2.031 1.371-2.031 2.793v5.332H8.988V9.559h3.2v1.472h.05c.457-.863 1.575-1.777 3.2-1.777 3.402 0 4.062 2.285 4.062 5.18v5.941z" fill="#FFC675"/></svg>
